X:12935
T:Pauline O'Neill's Fancy
S:Flute teacher
M:6/8
I:speed 280
K:G
|:D | ~G3 ~B3 | ~G3 AGE | DEG Bdg | e2e dBA | 
~G3 ~B3 | ded  AGE | DEG Bdg | edB G2:|
|: d | g2g dBG | AGE GED | GBd g2g | eag fed |
B2e dBA | ~G3 AGE | DEG Bdg edB G2:|
